X: 48
T: Słuchaj, co żywo, wszytki ziemskie kraje
C: Mikołaj Gomółka
%%abc-version 2.0
%%abcx-abcm2ps-target-version 5.9.1 (29 Sep 2008)
%%abc-creator hum2abc beta
%%abcx-conversion-date 2021/10/04 07:59:09
%%abc-edited-by Anna Matuszewska
%%abcx-initial-encoding-date 2020-02-09
%%humdrum-veritas 2248526230
%%humdrum-veritas-data 1788518985
%%linebreak <none>
%%barnumbers 0
L: 1/4
M: C|
N: Derived from pl-wn--sd-xvi-qu-273--049_gomolka-mikolaj--sluchaj-co-zywo-wszytki-ziemskie-kraje.krn
%%staves [1 2 3 4]
V: 1
V: 2 clef=alto
V: 3 clef=alto
V: 4 clef=bass
K: F
[V:1] c4c4 [|] 
[V:2] G4A4 [|] 
[V:3] E4F4 [|] 
[V:4] C,4F,4 [|] 
[V:1] z2c2c2c2 [|] 
[V:2] z2A2G3A [|] 
[V:3] z2F2E2E2 [|] 
[V:4] z2F,2C2C2 [|] 
[V:1] d4c2c4 [|] 
[V:2] B4A2G4 [|] 
[V:3] D2>E2F2E4 [|] 
[V:4] B,4F,2C,4 [|] 
[V:1] A2B2c2 [|] 
[V:2] A2G2G2 [|] 
[V:3] F2D2C2 [|] 
[V:4] F,2G,2C,2 [|] 
[V:1] A4G2G2 [|] 
[V:2] F4E2E2 [|] 
[V:3] F,G,A,B,C2C2 [|] 
[V:4] F,2F,,2C,2C,2 [|] 
[V:1] F2F2F4 [|] 
[V:2] D2D2D4 [|] 
[V:3] A,2B,2A,3B, [|] 
[V:4] D,2B,,2D,4 [|] 
[V:1] E2F2G2A2x [|] 
[V:2] G,2D2C2F3 [|] 
[V:3] C2F2EDC2x [|] 
[V:4] C,2D,2E,2F,2x [|] 
[V:1] B2c2d4 [|] 
[V:2] xGA2A4 [|] 
[V:3] D2E2F4 [|] 
[V:4] B,2A,2D,E,F,G, [|] 
[V:1] c2>B2A2G2 [|] 
[V:2] A2A,B,C2C2 [|] 
[V:3] E2E2F3E [|] 
[V:4] A,2>G,2F,2C,2 [|] 
[V:1] F2E2D4 [|] 
[V:2] A,2A,2F,4 [|] 
[V:3] D2C2B,4 [|] 
[V:4] D,2A,,2B,,4 [|] 
[V:1] C2A2A2GA [|] 
[V:2] F,2F2F2E2 [|] 
[V:3] A,2>G,2A,B,C2 [|] 
[V:4] F,,2F,,2F,,2C,2 [|] 
[V:1] B2B2A4 [|] 
[V:2] D4D2CD [|] 
[V:3] B,4F,G,A,B, [|] 
[V:4] G,,A,,B,,C,D,E,F,2 [|] 
[V:1] G2B4A2 [|] 
[V:2] EFG2D4 [|] 
[V:3] C2B,A,B,CD2 [|] 
[V:4] C,2G,4F,2 [|] 
[V:1] G4F2A4 [|] 
[V:2] _E2E2D2C4 [|] 
[V:3] B,2C2A,2A,G,x2 [|] 
[V:4] _E,2C,2D,2F,4 [|] 
[V:1] x2G2F4 [|] 
[V:2] x2G,2D2D2 [|] 
[V:3] A,B,C2A,2B,2 [|] 
[V:4] x2_E,2D,2B,,2 [|] 
[V:1] E2F4E2 [|] 
[V:2] C2C2B,2A,G, [|] 
[V:3] G,2A,2G,2G,2 [|] 
[V:4] C,2A,,2B,,2C,2 [|] 
[V:1] F8 [|] 
[V:2] A,8 [|] 
[V:3] F,8 [|] 
[V:4] F,,8 [|] 


